X: 8
T:Leitrim Jig
M:6/8
L:1/8
Q:180
R:Jig
K:D
GBG FAF|D2B BAB|GBG FAF|D2B BFD|
GBG FAF|D2B BAB|F2B dBG|ABG FED:|
|:G2B dBd|edB dBA|G2B dBG|ABG FED|
G2B dBd|edc def|gfe dBG|ABG FED:|
G3 F3|D6|
